X:68
T:Market Raisin Feast Quick step. JGi.068
O:Tealby,Lincolnshire
M:2/4
L:1/8
Q:1/4=110
S:Joshua Gibbons MS,1823,Tealby,Lincs.
R:quick step
Z:VMP/R.Greig, 2009
K:C
edec|BABG|cedc|Bdg2|edec|BABG|ecdg|ecc2:|
|:cc’ba|gece|fage|dBG2|cc’bg|gece|fage|c2c2:|

